X:1
T:Hail, King Jesus
T:Hail, King Jesus
T:August Krapf
T:August Krapf, 1910
T:Public Domain Courtesy of the Cyber Hymnal™
T:Public Domain Courtesy of the Cyber Hymnal™
C:August Krapf
Z:Public Domain
Z:Courtesy of the Cyber Hymnal™
%%score ( 1 2 ) ( 3 4 )
L:1/8
Q:1/4=107
M:4/4
K:Bb
V:1 treble 
V:2 treble 
V:3 bass 
V:4 bass 
V:1
 F2 | [DB]2 [^CB]2 [DB]2 (AG) | [DF]2 [CF]2 F2 [Fd]2 | c8 | [DB]4 z2 (AB) | %5
w: 1.~O|hail to- day our *|bless- èd king, King|Je-|sus; Sal- *|
w: 2.~For|He is low- ly, *|He is meek, King|Je-|sus; He *|
w: 3.~His|reign shall ne- ver, *|ne- ver cease, King|Je-|sus; One *|
 [Fc]2 [Ec]2 [=Ec]2 (AG) | F2 [EF]2 [DF]2 [GB]2 | ([FA]4 [=EG]4) | F6 z2 | %9
w: va- tion un- to *|all doth bring, King|Je- *|sus;|
w: lifts the fall- en, *|helps the weak, King|Je- *|sus;|
w: reign of ev- er- *|last- ing peace, King|Je- *|sus;|
"^Boys" [EFA]2 [EFA]2 [EFA]2 [EFA]2 | [DFB]2 [^C=EB]2 ([DFB]2 [DFB]2) |"^Girls" d2 d2 d2 (c=B) | %12
w: He has come to|right all wrong, *|He is might- y, *|
w: Sent not to the|cho- sen few, *|Sent to Gen- tile *|
w: And His name will|dear- er grow, *|Soon all wait- ing *|
 c2 d2 e4 |"^Parts" [Fc]2 [Fc]2 [Ff]2 [Fe]2 | [Fd]2 [Ec]2 [DB]2 (FG) | ([FA]4 [=EG]4) | %16
w: He is strong;|Raise to Him your|tri- umph song, King *|Je- *|
w: and to Jew,|Glor- ious things our|king will do, King *|Je- *|
w: worlds shall know|Him who loves His|peo- ple so, King *|Je- *|
 (z2 [A,C]2 [A,D]2 [A,EF]2) ||"^Refrain  Unison" B3 z B [B,DB]2 (AG) | F4 ([^G,D]2 [A,EF]2 z) F | %19
w: |* sus. * * *||
w: |* sus. Hail to- *|day King * Je-|
w: |* sus. * * *||
 d3 (z d) [DFd]2 (cB) | ([B,EB]2 [^CG]2) B4 [D=A]2 |"^Parts" [Ge]3 [Ge] [Fd]2 [Fc]2 | %22
w: |||
w: * * sus, The *|meek * and low-|* ly Je- sus,|
w: |||
 [FB]2 [Fc]2 ([Fd]2 Bd) | z2 [Ge]2 x6 | [Fd]2 [Ec]2 [DB]2 [Ge]2 | [Fd]4 [Ec]4 | [DB]6 |] %27
w: |||||
w: Let the praise * *|of|earth and sky, E-|cho to|His|
w: |||||
V:2
 F2 | x6 ^C2 | x4 F2 x2 | (G4 F2 E2) | x6 F2 | x6 =E2 | F2 x6 | x8 | F6 x2 | x8 | x8 | x8 | x8 | %13
 x8 | x6 F2 | x8 | F8 || [B,D]2 ([B,D]2 x [B,D]2) x2 | [B,D]2 [A,E]2 x6 | %19
 [DF]2 ([DF]2 x [DF]2) x2 | x4 [D_A]2 x4 | x8 | x8 | f6 F_A G2 | x8 | x8 | x6 |] %27
V:3
 F,2 | [B,,F,]2 [B,,=E,]2 [B,,F,]2 [E,B,]2 | [F,B,]2 [E,A,]2 [D,B,]2 [B,,B,]2 | ([E,B,]4 [E,A,]4) | %4
 [B,,B,]4 z2 C2 | [A,C]2 [^F,A,]2 [G,B,]2 [C,B,]2 | [D,A,]2 [C,A,]2 [B,,B,]2 [B,,D]2 | (C4 B,4) | %8
 [F,A,]6 z2 | C2 C2 C2 (B,A,) | B,2 (A,G,) F,4 | G,,2 [G,=B,F]2 [G,B,F]2 [G,B,F]2 | %12
 C,2 [G,CE]2 ([G,CE]2 [G,CE]2) | [F,A,]2 [E,A,]2 [D,B,]2 [C,A,]2 | %14
 [B,,B,]2 A,2 [G,B,]2 ([D,B,][_D,=B,]) | (C4 B,4) | (z2 [E,,E,]2 [D,,D,]2 [C,,C,]2) || %17
 [B,,F,]2 [F,,F,]2 [B,,F,]2 [F,,F,]2 x | [B,,F,]2 [=B,,F,]2 [C,F,]2 [F,,F,]2 x2 | %19
 [B,,F,]2 [F,,F,]2 [B,,F,]2 [_A,,_A,]2 x | ([G,,G,]2 [=E,,=E,]2) ([F,,F,]2 [B,,,B,,]2) x2 | %21
 [E,B,]3 [E,B,] [F,B,]2 [E,A,]2 | [D,B,]2 [C,A,]2 [B,,B,]2 z2 | %23
 z2 [D,B,][D,B,] [E,B,]2 [E,B,]2 x2 | [F,B,]2 [^F,A,]2 [G,B,]2 [E,B,]2 | [F,B,]4 [F,A,]4 | %26
 [B,,F,B,]6 |] %27
V:4
 F,2 | x8 | x8 | x8 | x6 (F,G,) | x8 | x8 | C,8 | x8 | x8 | x8 | x8 | x8 | x8 | x2 (F,^F,) x4 | %15
 C,8 | [F,A,]4 x4 || x9 | x10 | x9 | x10 | x8 | x8 | x10 | x8 | x8 | x6 |] %27

